X:1
T:All About Ronnie
T:All About Ronnie
T:Joe Green
T:Joe Green
C:Joe Greene
Z:All Rights Reserved
L:1/4
M:4/4
K:Bb
V:1 treble 
%%MIDI program 0
V:1
 z2 (3B, D F ||"Eb11" A A3 | z c (3c B A |"Bb" G4- | G z (3C E G |"Cm7" d d3 |"F7" z c (3c B A | %7
w: All a- bout|Ron- nie|There's so much to|tell.|* Al a- bout|Ron- nie,|I know him so|
"Bb" G4- | G2 z F |"Fm6" (3_A B A"G7" G D- | D D (3D ^C D |"Cm" G4- | G2 z A | %13
w: well.|* His|mag- i- cal fin- gers,|* their sense of em-|brace.|* His|
"Gm7" (3B A B"C7" A G- | G A (3B A B |"Gb11" c4- |"F9" c2 (3B, D F |"Eb11" A A3 | z c (3c B A | %19
w: whis- per that lin- gers|* car- ess- ing your|face.|* All a- bout|Ron- nie|best told in a|
"Bb" G4- | G z (3C E G |"Cm7" d d3 |"F7" z c"Cm6" (3c A c |"D7" d4- |"G7" d2 z d | %25
w: toast.|* Let me pro-|pose it,|I'm his fav- 'rite|host.|* We'll|
"Cm" (3c d c (3G G B |"Ebm" (3E _G B _d3/2 _c/ |"Bb" (3B F =D"Fm6" _A/ _A3/2- | %28
w: drink from dry glass- es there's|no need for wine. The|cham- pagne is Ron- nie,|
"G7" A z/ G/"C7" _G/"F7" _d F/ |"Bb""Gb" B4- |"Bb" B2 z2 |] %31
w: * and Ron- nie is|mine.||

